;FLAVOR:UltiGCode
;TIME:6872
;MATERIAL:25617
;MATERIAL2:0
;NOZZLE_DIAMETER:0.400000
;NOZZLE_DIAMETER2:0.400000

;Layer count: 169
;LAYER:0
M107
G0 F9000 X61.516 Y84.200 Z0.300
;TYPE:SKIRT
G1 F1200 X98.151 Y84.200 E4.39620
G1 X98.151 Y118.200 E8.47620
G1 X124.850 Y118.200 E11.68008
G1 X124.850 Y84.200 E15.76008
G1 X161.483 Y84.200 E20.15604
G1 X161.483 Y91.600 E21.04404
G1 X165.060 Y91.600 E21.47328
G1 X169.655 Y102.709 E22.91590
G1 X167.750 Y104.618 E23.23953
G1 X167.750 Y104.813 E23.26293
G1 X167.350 Y105.214 E23.33089
G1 X167.350 Y105.421 E23.35573
G1 X167.150 Y105.621 E23.38967
G1 X167.150 Y105.813 E23.41271
G1 X166.750 Y106.214 E23.48068
G1 X166.750 Y106.413 E23.50456
G1 X166.350 Y106.814 E23.57253
G1 X166.350 Y107.013 E23.59641
G1 X165.950 Y107.414 E23.66438
G1 X165.950 Y107.621 E23.68922
G1 X165.750 Y107.821 E23.72316
G1 X165.750 Y108.013 E23.74620
G1 X165.350 Y108.414 E23.81416
G1 X165.350 Y108.613 E23.83804
G1 X164.950 Y109.014 E23.90601
G1 X164.950 Y109.213 E23.92989
G1 X164.550 Y109.614 E23.99786
G1 X164.550 Y109.821 E24.02270
G1 X164.350 Y110.021 E24.05664
G1 X164.350 Y110.213 E24.07968
G1 X163.950 Y110.614 E24.14765
G1 X163.950 Y110.813 E24.17153
G1 X163.550 Y111.214 E24.23949
G1 X163.550 Y111.413 E24.26337
G1 X163.150 Y111.814 E24.33134
G1 X163.150 Y112.021 E24.35618
G1 X162.950 Y112.221 E24.39012
G1 X162.950 Y112.413 E24.41316
G1 X162.550 Y112.814 E24.48113
G1 X162.550 Y113.013 E24.50501
G1 X162.150 Y113.414 E24.57298
G1 X162.150 Y113.613 E24.59686
G1 X161.750 Y114.014 E24.66482
G1 X161.750 Y114.221 E24.68966
G1 X161.550 Y114.421 E24.72360
G1 X161.550 Y114.613 E24.74664
G1 X161.150 Y115.014 E24.81461
G1 X161.150 Y115.213 E24.83849
G1 X160.750 Y115.614 E24.90646
G1 X160.750 Y115.813 E24.93034
G1 X160.350 Y116.214 E24.99831
G1 X160.350 Y116.421 E25.02315
G1 X160.150 Y116.621 E25.05709
G1 X160.150 Y116.813 E25.08013
G1 X159.750 Y117.214 E25.14809
G1 X159.750 Y117.413 E25.17197
G1 X159.350 Y117.814 E25.23994
G1 X159.350 Y118.021 E25.26478
G1 X159.150 Y118.221 E25.29872
G1 X159.150 Y118.413 E25.32176
G1 X158.750 Y118.814 E25.38973
G1 X158.750 Y119.013 E25.41361
G1 X158.644 Y119.119 E25.43160
G1 X158.879 Y119.685 E25.50514
G1 X156.950 Y121.618 E25.83284
G1 X156.950 Y121.813 E25.85624
G1 X156.550 Y122.214 E25.92421
G1 X156.550 Y122.421 E25.94905
G1 X156.350 Y122.621 E25.98299
G1 X156.350 Y122.813 E26.00603
G1 X155.950 Y123.214 E26.07400
G1 X155.950 Y123.413 E26.09788
G1 X155.550 Y123.814 E26.16584
G1 X155.550 Y124.013 E26.18972
G1 X155.150 Y124.414 E26.25769
G1 X155.150 Y124.621 E26.28253
G1 X154.950 Y124.821 E26.31647
G1 X154.950 Y125.013 E26.33951
G1 X154.550 Y125.414 E26.40748
G1 X154.550 Y125.613 E26.43136
G1 X154.150 Y126.014 E26.49933
G1 X154.150 Y126.213 E26.52321
G1 X153.750 Y126.614 E26.59117
G1 X153.750 Y126.821 E26.61601
G1 X153.550 Y127.021 E26.64996
G1 X153.550 Y127.213 E26.67300
G1 X153.150 Y127.614 E26.74096
G1 X153.150 Y127.811 E26.76460
G1 X150.450 Y130.520 E27.22357
G1 X150.450 Y130.753 E27.25153
G1 X144.726 Y136.479 E28.22310
G1 X142.405 Y138.800 E28.61698
G1 X80.595 Y138.800 E36.03418
G1 X72.551 Y130.753 E37.39955
G1 X72.551 Y130.321 E37.45139
G1 X69.850 Y127.611 E37.91053
G1 X69.850 Y127.414 E37.93417
G1 X69.450 Y127.013 E38.00214
G1 X69.450 Y126.814 E38.02602
G1 X69.050 Y126.413 E38.09398
G1 X69.050 Y126.214 E38.11786
G1 X68.650 Y125.813 E38.18583
G1 X68.650 Y125.621 E38.20887
G1 X68.450 Y125.421 E38.24281
G1 X68.450 Y125.214 E38.26765
G1 X68.050 Y124.813 E38.33562
G1 X68.050 Y124.614 E38.35950
G1 X67.650 Y124.213 E38.42747
G1 X67.650 Y124.014 E38.45135
G1 X67.250 Y123.613 E38.51931
G1 X67.250 Y123.414 E38.54319
G1 X66.850 Y123.013 E38.61116
G1 X66.850 Y122.821 E38.63420
G1 X66.650 Y122.621 E38.66814
G1 X66.650 Y122.414 E38.69298
G1 X66.250 Y122.013 E38.76095
G1 X66.250 Y121.814 E38.78483
G1 X65.850 Y121.413 E38.85280
G1 X65.850 Y121.214 E38.87668
G1 X65.450 Y120.813 E38.94464
G1 X65.450 Y120.614 E38.96852
G1 X65.050 Y120.213 E39.03649
G1 X65.050 Y120.021 E39.05953
G1 X64.850 Y119.821 E39.09347
G1 X64.850 Y119.614 E39.11831
G1 X64.450 Y119.213 E39.18628
G1 X64.450 Y119.014 E39.21016
G1 X64.050 Y118.613 E39.27813
G1 X64.050 Y118.414 E39.30201
G1 X63.650 Y118.013 E39.36997
G1 X63.650 Y117.814 E39.39385
G1 X63.250 Y117.413 E39.46182
G1 X63.250 Y117.221 E39.48486
G1 X63.050 Y117.021 E39.51880
G1 X63.050 Y116.814 E39.54364
G1 X62.650 Y116.413 E39.61161
G1 X62.650 Y116.214 E39.63549
G1 X62.250 Y115.813 E39.70346
G1 X62.250 Y115.614 E39.72734
G1 X61.850 Y115.213 E39.79530
G1 X61.850 Y115.014 E39.81918
G1 X61.450 Y114.613 E39.88715
G1 X61.450 Y114.421 E39.91019
G1 X61.250 Y114.221 E39.94413
G1 X61.250 Y114.014 E39.96897
G1 X60.850 Y113.613 E40.03694
G1 X60.850 Y113.414 E40.06082
G1 X60.450 Y113.013 E40.12879
G1 X60.450 Y112.814 E40.15267
G1 X60.050 Y112.413 E40.22063
G1 X60.050 Y112.214 E40.24451
G1 X59.650 Y111.813 E40.31248
G1 X59.650 Y111.621 E40.33552
G1 X59.450 Y111.421 E40.36946
G1 X59.450 Y111.214 E40.39430
G1 X59.050 Y110.813 E40.46227
G1 X59.050 Y110.614 E40.48615
G1 X58.650 Y110.213 E40.55412
G1 X58.650 Y110.014 E40.57800
G1 X58.250 Y109.613 E40.64596
G1 X58.250 Y109.414 E40.66984
G1 X57.850 Y109.013 E40.73781
G1 X57.850 Y108.821 E40.76085
G1 X57.650 Y108.621 E40.79479
G1 X57.650 Y108.414 E40.81963
G1 X57.250 Y108.013 E40.88760
G1 X57.250 Y107.814 E40.91148
G1 X56.850 Y107.413 E40.97944
G1 X56.850 Y107.214 E41.00332
G1 X56.450 Y106.813 E41.07129
G1 X56.450 Y106.614 E41.09517
G1 X56.050 Y106.213 E41.16314
G1 X56.050 Y106.021 E41.18618
G1 X55.850 Y105.821 E41.22012
G1 X55.850 Y105.614 E41.24496
G1 X55.450 Y105.213 E41.31293
G1 X55.450 Y105.014 E41.33681
G1 X55.050 Y104.613 E41.40477
G1 X55.050 Y104.421 E41.42781
G1 X53.343 Y102.714 E41.71750
G1 X57.940 Y91.600 E43.16077
G1 X61.517 Y91.600 E43.59001
G1 X61.516 Y84.200 E44.47801
G0 F9000 X61.916 Y84.600
G1 F1200 X97.751 Y84.600 E48.77821
G1 X97.751 Y118.600 E52.85821
G1 X125.250 Y118.600 E56.15809
G1 X125.250 Y84.600 E60.23809
G1 X161.083 Y84.600 E64.53805
G1 X161.083 Y92.000 E65.42605
G1 X164.792 Y92.000 E65.87113
G1 X169.183 Y102.615 E67.24961
G1 X167.350 Y104.452 E67.56102
G1 X167.350 Y104.648 E67.58454
G1 X166.950 Y105.049 E67.65250
G1 X166.950 Y105.255 E67.67722
G1 X166.750 Y105.455 E67.71117
G1 X166.750 Y105.648 E67.73433
G1 X166.350 Y106.049 E67.80229
G1 X166.350 Y106.248 E67.82617
G1 X165.950 Y106.649 E67.89414
G1 X165.950 Y106.848 E67.91802
G1 X165.550 Y107.249 E67.98599
G1 X165.550 Y107.455 E68.01071
G1 X165.350 Y107.655 E68.04465
G1 X165.350 Y107.848 E68.06781
G1 X164.950 Y108.249 E68.13577
G1 X164.950 Y108.448 E68.15965
G1 X164.550 Y108.849 E68.22762
G1 X164.550 Y109.048 E68.25150
G1 X164.150 Y109.449 E68.31947
G1 X164.150 Y109.655 E68.34419
G1 X163.950 Y109.855 E68.37813
G1 X163.950 Y110.048 E68.40129
G1 X163.550 Y110.449 E68.46926
G1 X163.550 Y110.648 E68.49314
G1 X163.150 Y111.049 E68.56110
G1 X163.150 Y111.248 E68.58498
G1 X162.750 Y111.649 E68.65295
G1 X162.750 Y111.855 E68.67767
G1 X162.550 Y112.055 E68.71161
G1 X162.550 Y112.248 E68.73477
G1 X162.150 Y112.649 E68.80274
G1 X162.150 Y112.848 E68.82662
G1 X161.750 Y113.249 E68.89459
G1 X161.750 Y113.448 E68.91847
G1 X161.350 Y113.849 E68.98643
G1 X161.350 Y114.055 E69.01115
G1 X161.150 Y114.255 E69.04510
G1 X161.150 Y114.448 E69.06826
G1 X160.750 Y114.849 E69.13622
G1 X160.750 Y115.048 E69.16010
G1 X160.350 Y115.449 E69.22807
G1 X160.350 Y115.648 E69.25195
G1 X159.950 Y116.049 E69.31992
G1 X159.950 Y116.255 E69.34464
G1 X159.750 Y116.455 E69.37858
G1 X159.750 Y116.648 E69.40174
G1 X159.350 Y117.049 E69.46971
G1 X159.350 Y117.248 E69.49359
G1 X158.950 Y117.649 E69.56155
G1 X158.950 Y117.855 E69.58627
G1 X158.750 Y118.055 E69.62021
G1 X158.750 Y118.248 E69.64337
G1 X158.350 Y118.649 E69.71134
G1 X158.350 Y118.848 E69.73522
G1 X158.172 Y119.026 E69.76543
G1 X158.407 Y119.591 E69.83886
G1 X156.550 Y121.452 E70.15434
G1 X156.550 Y121.648 E70.17786
G1 X156.150 Y122.049 E70.24583
G1 X156.150 Y122.255 E70.27055
G1 X155.950 Y122.455 E70.30449
G1 X155.950 Y122.648 E70.32765
G1 X155.550 Y123.049 E70.39562
G1 X155.550 Y123.248 E70.41950
G1 X155.150 Y123.649 E70.48746
G1 X155.150 Y123.848 E70.51134
G1 X154.750 Y124.249 E70.57931
G1 X154.750 Y124.455 E70.60403
G1 X154.550 Y124.655 E70.63797
G1 X154.550 Y124.848 E70.66113
G1 X154.150 Y125.249 E70.72910
G1 X154.150 Y125.448 E70.75298
G1 X153.750 Y125.849 E70.82095
G1 X153.750 Y126.048 E70.84483
G1 X153.350 Y126.449 E70.91279
G1 X153.350 Y126.655 E70.93751
G1 X153.150 Y126.855 E70.97146
G1 X153.150 Y127.048 E70.99462
G1 X152.750 Y127.449 E71.06258
G1 X152.750 Y127.646 E71.08622
G1 X150.050 Y130.355 E71.54519
G1 X150.050 Y130.588 E71.57315
G1 X144.443 Y136.196 E72.52478
G1 X142.239 Y138.400 E72.89881
G1 X80.761 Y138.400 E80.27617
G1 X72.951 Y130.588 E81.60174
G1 X72.951 Y130.156 E81.65358
G1 X70.250 Y127.446 E82.11272
G1 X70.250 Y127.249 E82.13636
G1 X69.850 Y126.848 E82.20432
G1 X69.850 Y126.649 E82.22820
G1 X69.450 Y126.248 E82.29617
G1 X69.450 Y126.049 E82.32005
G1 X69.050 Y125.648 E82.38802
G1 X69.050 Y125.455 E82.41118
G1 X68.850 Y125.255 E82.44512
G1 X68.850 Y125.049 E82.46984
G1 X68.450 Y124.648 E82.53781
G1 X68.450 Y124.449 E82.56169
G1 X68.050 Y124.048 E82.62965
G1 X68.050 Y123.849 E82.65353
G1 X67.650 Y123.448 E82.72150
G1 X67.650 Y123.249 E82.74538
G1 X67.250 Y122.848 E82.81335
G1 X67.250 Y122.655 E82.83651
G1 X67.050 Y122.455 E82.87045
G1 X67.050 Y122.249 E82.89517
G1 X66.650 Y121.848 E82.96314
G1 X66.650 Y121.649 E82.98702
G1 X66.250 Y121.248 E83.05498
G1 X66.250 Y121.049 E83.07886
G1 X65.850 Y120.648 E83.14683
G1 X65.850 Y120.449 E83.17071
G1 X65.450 Y120.048 E83.23868
G1 X65.450 Y119.855 E83.26184
G1 X65.250 Y119.655 E83.29578
G1 X65.250 Y119.449 E83.32050
G1 X64.850 Y119.048 E83.38847
G1 X64.850 Y118.849 E83.41235
G1 X64.450 Y118.448 E83.48031
G1 X64.450 Y118.249 E83.50419
G1 X64.050 Y117.848 E83.57216
G1 X64.050 Y117.649 E83.59604
G1 X63.650 Y117.248 E83.66401
G1 X63.650 Y117.055 E83.68717
G1 X63.450 Y116.855 E83.72111
G1 X63.450 Y116.649 E83.74583
G1 X63.050 Y116.248 E83.81380
G1 X63.050 Y116.049 E83.83768
G1 X62.650 Y115.648 E83.90564
G1 X62.650 Y115.449 E83.92952
G1 X62.250 Y115.048 E83.99749
G1 X62.250 Y114.849 E84.02137
G1 X61.850 Y114.448 E84.08934
G1 X61.850 Y114.255 E84.11250
G1 X61.650 Y114.055 E84.14644
G1 X61.650 Y113.849 E84.17116
G1 X61.250 Y113.448 E84.23913
G1 X61.250 Y113.249 E84.26301
G1 X60.850 Y112.848 E84.33097
G1 X60.850 Y112.649 E84.35485
G1 X60.450 Y112.248 E84.42282
G1 X60.450 Y112.049 E84.44670
G1 X60.050 Y111.648 E84.51467
G1 X60.050 Y111.455 E84.53783
G1 X59.850 Y111.255 E84.57177
G1 X59.850 Y111.049 E84.59649
G1 X59.450 Y110.648 E84.66446
G1 X59.450 Y110.449 E84.68834
G1 X59.050 Y110.048 E84.75630
G1 X59.050 Y109.849 E84.78018
G1 X58.650 Y109.448 E84.84815
G1 X58.650 Y109.249 E84.87203
G1 X58.250 Y108.848 E84.94000
G1 X58.250 Y108.655 E84.96316
G1 X58.050 Y108.455 E84.99710
G1 X58.050 Y108.249 E85.02182
G1 X57.650 Y107.848 E85.08979
G1 X57.650 Y107.649 E85.11367
G1 X57.250 Y107.248 E85.18163
G1 X57.250 Y107.049 E85.20551
G1 X56.850 Y106.648 E85.27348
G1 X56.850 Y106.449 E85.29736
G1 X56.450 Y106.048 E85.36533
G1 X56.450 Y105.855 E85.38849
G1 X56.250 Y105.655 E85.42243
G1 X56.250 Y105.449 E85.44715
G1 X55.850 Y105.048 E85.51512
G1 X55.850 Y104.849 E85.53900
G1 X55.450 Y104.448 E85.60696
G1 X55.450 Y104.255 E85.63012
G1 X53.815 Y102.620 E85.90759
G1 X58.208 Y92.000 E87.28672
G1 X61.917 Y92.000 E87.73180
G1 X61.916 Y84.600 E88.61980
G0 F9000 X62.316 Y85.000
G1 F1200 X97.351 Y85.000 E92.82400
G1 X97.351 Y119.000 E96.90400
G1 X125.650 Y119.000 E100.29988
G1 X125.650 Y85.000 E104.37988
G1 X160.683 Y85.000 E108.58384
G1 X160.683 Y92.400 E109.47184
G1 X164.525 Y92.400 E109.93288
G1 X168.711 Y102.522 E111.24729
G1 X166.950 Y104.287 E111.54648
G1 X166.950 Y104.482 E111.56988
G1 X166.550 Y104.883 E111.63785
G1 X166.550 Y105.089 E111.66257
G1 X166.350 Y105.289 E111.69651
G1 X166.350 Y105.482 E111.71967
G1 X165.950 Y105.883 E111.78764
G1 X165.950 Y106.082 E111.81152
G1 X165.550 Y106.483 E111.87948
G1 X165.550 Y106.682 E111.90336
G1 X165.150 Y107.083 E111.97133
G1 X165.150 Y107.289 E111.99605
G1 X164.950 Y107.489 E112.02999
G1 X164.950 Y107.682 E112.05315
G1 X164.550 Y108.083 E112.12112
G1 X164.550 Y108.282 E112.14500
G1 X164.150 Y108.683 E112.21297
G1 X164.150 Y108.882 E112.23685
G1 X163.750 Y109.283 E112.30481
G1 X163.750 Y109.489 E112.32953
G1 X163.550 Y109.689 E112.36347
G1 X163.550 Y109.882 E112.38663
G1 X163.150 Y110.283 E112.45460
G1 X163.150 Y110.482 E112.47848
G1 X162.750 Y110.883 E112.54645
G1 X162.750 Y111.082 E112.57033
G1 X162.350 Y111.483 E112.63830
G1 X162.350 Y111.689 E112.66302
G1 X162.150 Y111.889 E112.69696
G1 X162.150 Y112.082 E112.72012
G1 X161.750 Y112.483 E112.78808
G1 X161.750 Y112.682 E112.81196
G1 X161.350 Y113.083 E112.87993
G1 X161.350 Y113.282 E112.90381
G1 X160.950 Y113.683 E112.97178
G1 X160.950 Y113.889 E112.99650
G1 X160.750 Y114.089 E113.03044
G1 X160.750 Y114.282 E113.05360
G1 X160.350 Y114.683 E113.12157
G1 X160.350 Y114.882 E113.14545
G1 X159.950 Y115.283 E113.21341
G1 X159.950 Y115.482 E113.23729
G1 X159.550 Y115.883 E113.30526
G1 X159.550 Y116.089 E113.32998
G1 X159.350 Y116.289 E113.36392
G1 X159.350 Y116.482 E113.38708
G1 X158.950 Y116.883 E113.45505
G1 X158.950 Y117.082 E113.47893
G1 X158.550 Y117.483 E113.54690
G1 X158.550 Y117.689 E113.57162
G1 X158.350 Y117.889 E113.60556
G1 X158.350 Y118.082 E113.62872
G1 X157.950 Y118.483 E113.69669
G1 X157.950 Y118.682 E113.72057
G1 X157.700 Y118.933 E113.76308
G1 X157.935 Y119.498 E113.83651
G1 X156.150 Y121.286 E114.13969
G1 X156.150 Y121.482 E114.16321
G1 X155.750 Y121.883 E114.23117
G1 X155.750 Y122.089 E114.25589
G1 X155.550 Y122.289 E114.28983
G1 X155.550 Y122.482 E114.31299
G1 X155.150 Y122.883 E114.38096
G1 X155.150 Y123.082 E114.40484
G1 X154.750 Y123.483 E114.47281
G1 X154.750 Y123.682 E114.49669
G1 X154.350 Y124.083 E114.56466
G1 X154.350 Y124.289 E114.58938
G1 X154.150 Y124.489 E114.62332
G1 X154.150 Y124.682 E114.64648
G1 X153.750 Y125.083 E114.71444
G1 X153.750 Y125.282 E114.73832
G1 X153.350 Y125.683 E114.80629
G1 X153.350 Y125.882 E114.83017
G1 X152.950 Y126.283 E114.89814
G1 X152.950 Y126.489 E114.92286
G1 X152.750 Y126.689 E114.95680
G1 X152.750 Y126.882 E114.97996
G1 X152.350 Y127.283 E115.04793
G1 X152.350 Y127.481 E115.07169
G1 X149.650 Y130.190 E115.53066
G1 X149.650 Y130.422 E115.55850
G1 X144.160 Y135.913 E116.49027
G1 X142.073 Y138.000 E116.84444
G1 X80.927 Y138.000 E124.18196
G1 X73.351 Y130.422 E125.46782
G1 X73.351 Y129.991 E125.51954
G1 X70.650 Y127.281 E125.97868
G1 X70.650 Y127.083 E126.00244
G1 X70.250 Y126.682 E126.07041
G1 X70.250 Y126.483 E126.09429
G1 X69.850 Y126.082 E126.16225
G1 X69.850 Y125.883 E126.18613
G1 X69.450 Y125.482 E126.25410
G1 X69.450 Y125.289 E126.27726
G1 X69.250 Y125.089 E126.31120
G1 X69.250 Y124.883 E126.33592
G1 X68.850 Y124.482 E126.40389
G1 X68.850 Y124.283 E126.42777
G1 X68.450 Y123.882 E126.49574
G1 X68.450 Y123.683 E126.51962
G1 X68.050 Y123.282 E126.58758
G1 X68.050 Y123.083 E126.61146
G1 X67.650 Y122.682 E126.67943
G1 X67.650 Y122.489 E126.70259
G1 X67.450 Y122.289 E126.73653
G1 X67.450 Y122.083 E126.76125
G1 X67.050 Y121.682 E126.82922
G1 X67.050 Y121.483 E126.85310
G1 X66.650 Y121.082 E126.92107
G1 X66.650 Y120.883 E126.94495
G1 X66.250 Y120.482 E127.01291
G1 X66.250 Y120.283 E127.03679
G1 X65.850 Y119.882 E127.10476
G1 X65.850 Y119.689 E127.12792
G1 X65.650 Y119.489 E127.16186
G1 X65.650 Y119.283 E127.18658
G1 X65.250 Y118.882 E127.25455
G1 X65.250 Y118.683 E127.27843
G1 X64.850 Y118.282 E127.34640
G1 X64.850 Y118.083 E127.37028
G1 X64.450 Y117.682 E127.43824
G1 X64.450 Y117.483 E127.46212
G1 X64.050 Y117.082 E127.53009
G1 X64.050 Y116.889 E127.55325
G1 X63.850 Y116.689 E127.58719
G1 X63.850 Y116.483 E127.61191
G1 X63.450 Y116.082 E127.67988
G1 X63.450 Y115.883 E127.70376
G1 X63.050 Y115.482 E127.77173
G1 X63.050 Y115.283 E127.79561
G1 X62.650 Y114.882 E127.86357
G1 X62.650 Y114.683 E127.88745
G1 X62.250 Y114.282 E127.95542
G1 X62.250 Y114.089 E127.97858
G1 X62.050 Y113.889 E128.01252
G1 X62.050 Y113.683 E128.03724
