;FLAVOR:UltiGCode
;TIME:875
;MATERIAL:2152
;MATERIAL2:0
;NOZZLE_DIAMETER:0.400000
;NOZZLE_DIAMETER2:0.400000

;Layer count: 66
;LAYER:0
M107
G0 F9000 X105.030 Y91.408 Z0.300
;TYPE:SKIRT
G1 F1200 X125.232 Y91.408 E2.42424
G1 X125.232 Y101.727 E3.66252
G1 X129.316 Y100.528 E4.17328
G1 X129.316 Y127.199 E7.37380
G1 X125.232 Y126.247 E7.87702
G1 X125.232 Y158.511 E11.74870
G1 X114.692 Y158.507 E13.01350
G1 X105.030 Y158.512 E14.17294
G1 X105.030 Y91.408 E22.22542
G0 F9000 X105.430 Y91.808
G1 F1200 X124.832 Y91.808 E24.55366
G1 X124.832 Y102.260 E25.80790
G1 X128.916 Y101.062 E26.31863
G1 X128.916 Y126.695 E29.39459
G1 X124.832 Y125.743 E29.89781
G1 X124.832 Y158.111 E33.78197
G1 X114.692 Y158.107 E34.99877
G1 X105.430 Y158.112 E36.11021
G1 X105.430 Y91.808 E44.06669
G0 F9000 X105.830 Y92.208
G1 F1200 X124.432 Y92.208 E46.29893
G1 X124.432 Y102.795 E47.56937
G1 X128.516 Y101.596 E48.08014
G1 X128.516 Y126.191 E51.03154
G1 X124.432 Y125.239 E51.53476
G1 X124.432 Y157.711 E55.43140
G1 X114.692 Y157.707 E56.60020
G1 X105.830 Y157.712 E57.66364
G1 X105.830 Y92.208 E65.52412
G0 F9000 X106.230 Y92.608
G1 F1200 X124.032 Y92.608 E67.66036
G1 X124.032 Y103.329 E68.94688
G1 X128.116 Y102.131 E69.45761
G1 X128.116 Y125.687 E72.28433
G1 X124.032 Y124.735 E72.78754
G1 X124.032 Y157.310 E76.69654
G1 X114.693 Y157.307 E77.81722
G1 X106.230 Y157.312 E78.83278
G1 X106.230 Y92.608 E86.59726
G0 F9000 X106.630 Y93.008
G1 F1200 X123.632 Y93.008 E88.63750
G1 X123.632 Y103.864 E89.94022
G1 X127.716 Y102.665 E90.45099
G1 X127.716 Y125.183 E93.15315
G1 X123.632 Y124.231 E93.65637
G1 X123.632 Y156.910 E97.57785
G1 X114.692 Y156.907 E98.65065
G1 X106.630 Y156.911 E99.61809
G1 X106.630 Y93.008 E107.28645
G0 F9000 X107.030 Y93.408
G1 F1200 X123.232 Y93.408 E109.23069
G1 X123.232 Y104.398 E110.54949
G1 X127.316 Y103.199 E111.06025
G1 X127.316 Y124.679 E113.63785
G1 X123.232 Y123.727 E114.14107
G1 X123.232 Y156.510 E118.07503
G1 X114.692 Y156.507 E119.09983
G1 X107.030 Y156.511 E120.01927
G1 X107.030 Y93.408 E127.59163
G0 F9000 X107.430 Y93.808
G1 F1200 X122.832 Y93.808 E129.43987
G1 X122.832 Y104.932 E130.77475
G1 X126.916 Y103.733 E131.28551
G1 X126.916 Y124.175 E133.73855
G1 X122.832 Y123.222 E134.24180
G1 X122.832 Y156.110 E138.18836
G1 X114.692 Y156.107 E139.16516
G1 X107.430 Y156.111 E140.03660
G1 X107.430 Y93.808 E147.51296
G0 F9000 X107.830 Y94.208
G1 F1200 X122.432 Y94.208 E149.26520
G1 X122.432 Y105.466 E150.61616
G1 X126.516 Y104.268 E151.12689
G1 X126.516 Y123.671 E153.45525
G1 X122.432 Y122.719 E153.95847
G1 X122.432 Y155.710 E157.91739
G1 X114.692 Y155.707 E158.84619
G1 X107.830 Y155.711 E159.66963
G1 X107.830 Y94.208 E167.04999
G0 F9000 X108.230 Y94.608
G1 F1200 X122.032 Y94.608 E168.70623
G1 X122.032 Y106.001 E170.07339
G1 X126.116 Y104.802 E170.58415
G1 X126.116 Y123.167 E172.78795
G1 X122.032 Y122.215 E173.29117
G1 X122.032 Y155.310 E177.26257
G1 X114.691 Y155.307 E178.14349
G1 X108.230 Y155.310 E178.91881
G1 X108.230 Y94.608 E186.20305
G0 F9000 X108.630 Y95.008
G1 F1200 X121.632 Y95.008 E187.76329
G1 X121.632 Y106.535 E189.14653
G1 X125.716 Y105.336 E189.65730
G1 X125.716 Y122.663 E191.73654
G1 X121.632 Y121.711 E192.23976
G1 X121.632 Y154.910 E196.22364
G1 X114.691 Y154.907 E197.05656
G1 X108.630 Y154.910 E197.78388
G1 X108.630 Y95.008 E204.97212
G0 F9000 X109.030 Y95.408
G1 F1200 X121.232 Y95.408 E206.43636
G1 X121.232 Y107.069 E207.83568
G1 X125.316 Y105.871 E208.34641
G1 X125.316 Y122.159 E210.30097
G1 X121.232 Y121.206 E210.80421
G1 X121.232 Y154.509 E214.80057
G1 X114.692 Y154.507 E215.58537
G1 X109.030 Y154.510 E216.26481
G1 X109.030 Y95.408 E223.35705
G0 F9000 X109.430 Y95.808
G1 F1200 X120.832 Y95.808 E224.72529
G1 X120.832 Y107.604 E226.14081
G1 X124.916 Y106.405 E226.65158
G1 X124.916 Y121.655 E228.48158
G1 X120.832 Y120.703 E228.98480
G1 X120.832 Y154.109 E232.99352
G1 X114.692 Y154.107 E233.73032
G1 X109.430 Y154.110 E234.36176
G1 X109.430 Y95.808 E241.35800
G0 F9000 X109.830 Y96.208
G1 F1200 X120.432 Y96.208 E242.63024
G1 X120.432 Y108.136 E244.06160
G1 X120.579 Y108.094 E244.07994
G1 X124.516 Y106.939 E244.57229
G1 X124.516 Y121.151 E246.27773
G1 X120.432 Y120.199 E246.78095
G1 X120.432 Y153.709 E250.80215
G1 X114.692 Y153.707 E251.49095
G1 X109.830 Y153.710 E252.07439
G1 X109.830 Y96.208 E258.97463
G0 F9000 X110.230 Y96.608
G1 F1200 X120.032 Y96.608 E260.15087
G1 X120.032 Y108.666 E261.59783
G1 X120.692 Y108.478 E261.68018
G1 X124.116 Y107.473 E262.10840
G1 X124.116 Y120.647 E263.68928
G1 X120.032 Y119.694 E264.19252
G1 X120.032 Y153.309 E268.22632
G1 X114.691 Y153.307 E268.86724
G1 X110.230 Y153.309 E269.40256
G1 X110.230 Y96.608 E276.20668
G0 F9000 X110.630 Y97.008
G1 F1200 X119.632 Y97.008 E277.28692
G1 X119.632 Y109.195 E278.74936
G1 X120.804 Y108.862 E278.89557
G1 X123.716 Y108.008 E279.25973
G1 X123.716 Y120.143 E280.71593
G1 X119.632 Y119.191 E281.21914
G1 X119.632 Y152.909 E285.26530
G1 X114.691 Y152.907 E285.85822
G1 X110.630 Y152.909 E286.34554
G1 X110.630 Y97.008 E293.05366
G0 F9000 X111.030 Y97.408
G1 F1200 X119.232 Y97.408 E294.03790
G1 X119.232 Y109.725 E295.51594
G1 X120.917 Y109.246 E295.72616
G1 X123.316 Y108.542 E296.02618
G1 X123.316 Y119.639 E297.35782
G1 X119.232 Y118.687 E297.86103
G1 X119.232 Y152.509 E301.91967
G1 X114.691 Y152.507 E302.46459
G1 X111.030 Y152.509 E302.90391
G1 X111.030 Y97.408 E309.51603
G0 F9000 X111.430 Y97.808
G1 F1200 X118.832 Y97.808 E310.40427
G1 X118.832 Y110.254 E311.89779
G1 X121.041 Y109.626 E312.17338
G1 X121.041 Y109.627 E312.17350
G1 X122.916 Y109.076 E312.40801
G1 X122.916 Y119.135 E313.61509
G1 X118.832 Y118.183 E314.11831
G1 X118.832 Y152.109 E318.18943
G1 X114.691 Y152.107 E318.68635
G1 X111.430 Y152.109 E319.07767
G1 X111.430 Y97.808 E325.59379
G0 F9000 X111.830 Y98.208
G1 F1200 X118.432 Y98.208 E326.38603
G1 X118.432 Y110.783 E327.89503
G1 X121.142 Y110.014 E328.23307
G1 X121.142 Y110.013 E328.23319
G1 X122.516 Y109.610 E328.40502
G1 X122.516 Y118.631 E329.48754
G1 X118.432 Y117.678 E329.99078
G1 X118.432 Y151.708 E334.07438
G1 X111.830 Y151.708 E334.86662
G1 X111.830 Y98.208 E341.28662
G0 F9000 X112.230 Y98.608
G1 F1200 X118.032 Y98.608 E341.98286
G1 X118.032 Y111.313 E343.50746
G1 X121.255 Y110.397 E343.90954
G1 X122.116 Y110.145 E344.01719
G1 X122.116 Y118.127 E344.97503
G1 X118.032 Y117.175 E345.47825
G1 X118.032 Y151.308 E349.57421
G1 X112.230 Y151.308 E350.27045
G1 X112.230 Y98.608 E356.59445
G0 F9000 X112.630 Y99.008
G1 F1200 X117.632 Y99.008 E357.19469
G1 X117.632 Y111.843 E358.73489
G1 X121.368 Y110.781 E359.20097
G1 X121.716 Y110.679 E359.24449
G1 X121.716 Y117.623 E360.07777
G1 X117.632 Y116.671 E360.58099
G1 X117.632 Y150.908 E364.68943
G1 X112.630 Y150.908 E365.28967
G1 X112.630 Y99.008 E371.51767
G0 F9000 X113.330 Y99.618
G0 X113.830 Y100.208
;TYPE:WALL-INNER
G1 F1200 X116.432 Y100.208 E371.82991
G1 X116.432 Y113.431 E373.41667
G1 X120.516 Y112.271 E373.92613
G1 X120.516 Y116.111 E374.38693
G1 X117.757 Y115.467 E374.72691
G1 X116.432 Y115.151 E374.89037
G1 X116.432 Y149.708 E379.03721
G1 X113.830 Y149.708 E379.34945
G1 X113.830 Y100.208 E385.28945
G0 F9000 X113.430 Y99.808
G1 F1200 X116.832 Y99.808 E385.69769
G1 X116.832 Y112.901 E387.26885
G1 X120.916 Y111.741 E387.77832
G1 X120.916 Y116.615 E388.36320
G1 X117.664 Y115.857 E388.76390
G1 X116.832 Y115.658 E388.86656
G1 X116.832 Y150.108 E393.00056
G1 X113.430 Y150.108 E393.40880
G1 X113.430 Y99.808 E399.44480
G0 F9000 X113.030 Y99.408
;TYPE:WALL-OUTER
G1 F1200 X117.232 Y99.408 E399.94904
G1 X117.232 Y112.372 E401.50472
G1 X121.316 Y111.211 E402.01421
G1 X121.316 Y117.119 E402.72317
G1 X117.571 Y116.245 E403.18465
G1 X117.232 Y116.165 E403.22645
G1 X117.232 Y150.508 E407.34761
G1 X113.030 Y150.508 E407.85185
G1 X113.030 Y99.408 E413.98385
G0 F9000 X113.330 Y99.618
G0 X114.206 Y100.347
;TYPE:SKIN
G1 F1200 X116.291 Y102.432 E414.33768
G0 F9000 X116.291 Y102.997
G1 F1200 X113.969 Y100.675 E414.73174
G0 F9000 X113.969 Y101.241
G1 F1200 X116.291 Y103.563 E415.12580
G0 F9000 X116.291 Y104.129
G1 F1200 X113.969 Y101.807 E415.51985
G0 F9000 X113.969 Y102.372
G1 F1200 X116.291 Y104.694 E415.91391
G0 F9000 X116.291 Y105.260
G1 F1200 X113.969 Y102.938 E416.30797
G0 F9000 X113.969 Y103.504
G1 F1200 X116.291 Y105.826 E416.70202
G0 F9000 X116.291 Y106.391
G1 F1200 X113.969 Y104.069 E417.09608
G0 F9000 X113.969 Y104.635
G1 F1200 X116.291 Y106.957 E417.49014
G0 F9000 X116.291 Y107.523
G1 F1200 X113.969 Y105.201 E417.88419
G0 F9000 X113.969 Y105.766
G1 F1200 X116.291 Y108.089 E418.27833
G0 F9000 X116.291 Y108.654
G1 F1200 X113.969 Y106.332 E418.67239
G0 F9000 X113.969 Y106.898
G1 F1200 X116.291 Y109.220 E419.06645
G0 F9000 X116.291 Y109.786
G1 F1200 X113.969 Y107.463 E419.46059
G0 F9000 X113.969 Y108.029
G1 F1200 X116.291 Y110.351 E419.85464
G0 F9000 X116.291 Y110.917
G1 F1200 X113.969 Y108.595 E420.24870
G0 F9000 X113.969 Y109.161
G1 F1200 X116.291 Y111.483 E420.64276
G0 F9000 X116.291 Y112.048
G1 F1200 X113.969 Y109.726 E421.03681
G0 F9000 X113.969 Y110.292
G1 F1200 X116.291 Y112.614 E421.43087
G0 F9000 X116.291 Y113.180
G1 F1200 X113.969 Y110.858 E421.82493
G0 F9000 X113.969 Y111.423
G1 F1200 X117.897 Y115.351 E422.49153
G0 F9000 X118.636 Y115.525
G1 F1200 X116.630 Y113.519 E422.83196
G0 F9000 X117.071 Y113.394
G1 F1200 X119.376 Y115.699 E423.22313
G0 F9000 X120.115 Y115.872
G1 F1200 X117.511 Y113.269 E423.66496
G0 F9000 X117.953 Y113.144
G1 F1200 X120.375 Y115.567 E424.07607
G0 F9000 X120.375 Y115.001
G1 F1200 X118.393 Y113.019 E424.41243
G0 F9000 X118.834 Y112.894
G1 F1200 X120.375 Y114.436 E424.67403
G0 F9000 X120.375 Y113.870
G1 F1200 X119.274 Y112.769 E424.86088
G0 F9000 X119.715 Y112.644
G1 F1200 X120.375 Y113.304 E424.97288
G0 F9000 X120.375 Y112.738
G1 F1200 X120.155 Y112.519 E425.01013
G0 F9000 X117.157 Y115.177
G1 F1200 X113.969 Y111.989 E425.55115
G0 F9000 X113.969 Y112.555
G1 F1200 X116.418 Y115.003 E425.96668
G0 F9000 X116.291 Y115.442
G1 F1200 X113.969 Y113.120 E426.36073
G0 F9000 X113.969 Y113.686
G1 F1200 X116.291 Y116.008 E426.75479
G0 F9000 X116.291 Y116.574
G1 F1200 X113.969 Y114.252 E427.14885
G0 F9000 X113.969 Y114.817
G1 F1200 X116.291 Y117.140 E427.54299
G0 F9000 X116.291 Y117.705
G1 F1200 X113.969 Y115.383 E427.93704
G0 F9000 X113.969 Y115.949
G1 F1200 X116.291 Y118.271 E428.33110
G0 F9000 X116.291 Y118.837
G1 F1200 X113.969 Y116.514 E428.72524
G0 F9000 X113.969 Y117.080
G1 F1200 X116.291 Y119.402 E429.11930
G0 F9000 X116.291 Y119.968
G1 F1200 X113.969 Y117.646 E429.51336
G0 F9000 X113.969 Y118.211
G1 F1200 X116.291 Y120.534 E429.90750
G0 F9000 X116.291 Y121.099
G1 F1200 X113.969 Y118.777 E430.30155
G0 F9000 X113.969 Y119.343
G1 F1200 X116.291 Y121.665 E430.69561
G0 F9000 X116.291 Y122.231
G1 F1200 X113.969 Y119.909 E431.08967
G0 F9000 X116.291 Y101.866
G1 F1200 X114.772 Y100.347 E431.34745
G0 F9000 X115.338 Y100.347
G1 F1200 X116.291 Y101.300 E431.50918
G0 F9000 X116.291 Y100.735
G1 F1200 X115.903 Y100.347 E431.57502
G0 F9000 X113.969 Y120.474
G1 F1200 X116.291 Y122.796 E431.96908
G0 F9000 X116.291 Y123.362
G1 F1200 X113.969 Y121.040 E432.36314
G0 F9000 X113.969 Y121.606
G1 F1200 X116.291 Y123.928 E432.75719
G0 F9000 X116.291 Y124.493
G1 F1200 X113.969 Y122.171 E433.15125
G0 F9000 X113.969 Y122.737
G1 F1200 X116.291 Y125.059 E433.54531
G0 F9000 X116.291 Y125.625
G1 F1200 X113.969 Y123.303 E433.93936
G0 F9000 X113.969 Y123.868
G1 F1200 X116.291 Y126.190 E434.33342
G0 F9000 X116.291 Y126.756
G1 F1200 X113.969 Y124.434 E434.72748
G0 F9000 X113.969 Y125.000
G1 F1200 X116.291 Y127.322 E435.12153
G0 F9000 X116.291 Y127.888
G1 F1200 X113.969 Y125.565 E435.51567
G0 F9000 X113.969 Y126.131
G1 F1200 X116.291 Y128.453 E435.90973
G0 F9000 X116.291 Y129.019
G1 F1200 X113.969 Y126.697 E436.30379
G0 F9000 X113.969 Y127.262
G1 F1200 X116.291 Y129.585 E436.69793
G0 F9000 X116.291 Y130.150
G1 F1200 X113.969 Y127.828 E437.09198
G0 F9000 X113.969 Y128.394
G1 F1200 X116.291 Y130.716 E437.48604
G0 F9000 X116.291 Y131.282
G1 F1200 X113.969 Y128.960 E437.88010
G0 F9000 X113.969 Y129.525
G1 F1200 X116.291 Y131.847 E438.27415
G0 F9000 X116.292 Y132.414
G1 F1200 X113.969 Y130.091 E438.66838
G0 F9000 X113.969 Y130.657
G1 F1200 X116.292 Y132.979 E439.06252
G0 F9000 X116.292 Y133.545
G1 F1200 X113.969 Y131.222 E439.45675
G0 F9000 X113.969 Y131.788
G1 F1200 X116.292 Y134.111 E439.85097
G0 F9000 X116.292 Y134.676
G1 F1200 X113.969 Y132.354 E440.24511
G0 F9000 X113.969 Y132.919
G1 F1200 X116.292 Y135.242 E440.63934
G0 F9000 X116.292 Y135.808
G1 F1200 X113.969 Y133.485 E441.03357
G0 F9000 X113.969 Y134.051
G1 F1200 X116.292 Y136.374 E441.42779
G0 F9000 X116.292 Y136.939
G1 F1200 X113.969 Y134.616 E441.82202
G0 F9000 X113.969 Y135.182
G1 F1200 X116.292 Y137.505 E442.21625
G0 F9000 X116.292 Y138.071
G1 F1200 X113.969 Y135.748 E442.61047
G0 F9000 X113.969 Y136.313
G1 F1200 X116.292 Y138.636 E443.00470
G0 F9000 X116.292 Y139.202
G1 F1200 X113.969 Y136.879 E443.39892
G0 F9000 X113.969 Y137.445
G1 F1200 X116.292 Y139.768 E443.79315
G0 F9000 X116.292 Y140.333
G1 F1200 X113.969 Y138.010 E444.18738
G0 F9000 X113.969 Y138.576
G1 F1200 X116.292 Y140.899 E444.58160
G0 F9000 X116.292 Y141.465
G1 F1200 X113.969 Y139.142 E444.97583
G0 F9000 X113.969 Y139.708
G1 F1200 X116.292 Y142.030 E445.36997
G0 F9000 X116.292 Y142.596
G1 F1200 X113.969 Y140.273 E445.76420
G0 F9000 X113.969 Y140.839
G1 F1200 X116.292 Y143.162 E446.15842
G0 F9000 X116.292 Y143.727
G1 F1200 X113.969 Y141.405 E446.55256
G0 F9000 X113.969 Y141.970
G1 F1200 X116.292 Y144.293 E446.94679
G0 F9000 X116.292 Y144.859
G1 F1200 X113.969 Y142.536 E447.34102
G0 F9000 X113.969 Y143.102
G1 F1200 X116.292 Y145.424 E447.73516
G0 F9000 X116.292 Y145.990
G1 F1200 X113.969 Y143.667 E448.12938
G0 F9000 X113.969 Y144.233
G1 F1200 X116.292 Y146.556 E448.52361
G0 F9000 X116.292 Y147.122
G1 F1200 X113.969 Y144.799 E448.91784
G0 F9000 X113.969 Y145.364
G1 F1200 X116.292 Y147.687 E449.31206
G0 F9000 X116.292 Y148.253
G1 F1200 X113.969 Y145.930 E449.70629
G0 F9000 X113.969 Y146.496
G1 F1200 X116.292 Y148.819 E450.10051
G0 F9000 X116.292 Y149.384
G1 F1200 X113.969 Y147.061 E450.49474
G0 F9000 X113.969 Y147.627
G1 F1200 X115.908 Y149.567 E450.82389
G0 F9000 X115.343 Y149.567
G1 F1200 X113.969 Y148.193 E451.05706
G0 F9000 X113.969 Y148.759
G1 F1200 X114.777 Y149.567 E451.19418
G0 F9000 X114.211 Y149.567
G1 F1200 X113.969 Y149.324 E451.23534
;LAYER:1
M106 S127
G0 F9000 X113.827 Y150.133 Z0.450
;TYPE:WALL-INNER
G1 F1800 X113.827 Y100.205 E454.22353
G1 X116.435 Y100.205 E454.37962
G1 X116.435 Y113.427 E455.17095
G1 X120.519 Y112.266 E455.42506
G1 X120.519 Y116.115 E455.65543
G1 X116.435 Y115.162 E455.90642
G1 X116.435 Y150.134 E457.99950
G1 X113.827 Y150.133 E458.15558
G0 F9000 X113.428 Y150.532
G1 F1800 X113.428 Y99.806 E461.19154
G1 X116.834 Y99.806 E461.39538
G1 X116.834 Y112.899 E462.17900
G1 X120.918 Y111.737 E462.43313
G1 X120.918 Y116.618 E462.72526
G1 X116.834 Y115.664 E462.97626
G1 X116.834 Y150.533 E465.06317
G1 X113.428 Y150.532 E465.26702
G0 F9000 X113.029 Y150.931
;TYPE:WALL-OUTER
G1 F1800 X113.029 Y99.407 E468.35074
G1 X117.233 Y99.407 E468.60234
G1 X117.233 Y112.370 E469.37818
G1 X121.317 Y111.209 E469.63229
G1 X121.317 Y117.120 E469.98607
G1 X117.233 Y116.167 E470.23706
G1 X117.233 Y150.932 E472.31774
G1 X113.029 Y150.931 E472.56935
G0 F9000 X113.966 Y149.830
;TYPE:SKIN
G1 F1800 X116.294 Y147.503 E472.76636
G0 F9000 X116.294 Y148.067
G1 F1800 X114.368 Y149.992 E472.92933
G0 F9000 X114.933 Y149.992
G1 F1800 X116.294 Y148.631 E473.04453
G0 F9000 X116.294 Y149.195
G1 F1800 X115.497 Y149.992 E473.11199
G0 F9000 X116.061 Y149.992
G1 F1800 X116.294 Y149.760 E473.13166
G0 F9000 X113.966 Y149.266
G1 F1800 X116.294 Y146.938 E473.32871
G0 F9000 X116.294 Y146.374
G1 F1800 X113.966 Y148.702 E473.52575
G0 F9000 X113.966 Y148.138
G1 F1800 X116.294 Y145.810 E473.72280
G0 F9000 X116.294 Y145.246
G1 F1800 X113.966 Y147.573 E473.91980
G0 F9000 X113.966 Y147.009
G1 F1800 X116.294 Y144.681 E474.11684
G0 F9000 X116.294 Y144.117
G1 F1800 X113.966 Y146.445 E474.31388
G0 F9000 X113.966 Y145.881
G1 F1800 X116.294 Y143.553 E474.51093
G0 F9000 X116.294 Y142.989
